X: 1
T: Rait Castle
C: Ian Hardie
M: 6/8
R: Jig
L: 1/8
S: "Waiting to Fly" by Mike Vass and Ali Vass
K: Bm
|:B3 cBA|Bba fed|cAA FAE-|EFA cBA|
B3  cBA|Bba fed|cAA cfe|cBB B2 A:|
|: Bbb Bae|fba fed|cAA FAE-|EFA cBA|
[1 Bbb Bae|fba fed|cAA cfe|cBB B2 A:|
[2 B3 cBA|Bba fed|cAA cfe|cBA B3|] 
